X:1
T:Title
%%score { ( 1 3 ) | ( 2 4 ) }
L:1/8
M:3/4
K:F
V:1 treble nm="Grand Piano"
V:3 treble 
V:2 bass 
V:4 bass 
V:1
 z2 z2[Q:1/4=100] [CEc]2 | F2- [DFB]2 [CFc]2 | [Fd]4 z2 | G2 z2 z2 | [CFA]4 [CGc]2 | %5
 [CFA]2 [EG]2 [CFA]2 | [DGB]4 [CGc]2 | [FA]2 z2 z2 |[M:2/4] [CEG]4 |[M:1/4] [CGc]2 | %10
[M:3/4] F2- [DFB]2 [CFc]2 | [Fd]4 z2 | G2 z2 z2 | [CFA]4 [CGc]2 | [CFA]2 [EG]2 [CFA]2 | %15
 [DGB]4 [CGc]2 | [CFA]4 [CEG]2 |[M:6/4] .[A,F]6 z6 |[M:3/4] [B,DF]6 | [A,CF]6 |] %20
V:2
 z2 z2 C,2 | F,2 D,2 A,,2 | B,4 [F,A,F]2 | E,2 C,2 E,2 | F,4 E,2 | F,2 C2 A,2 | G,4 E,2 | %7
 F,2 G,2 A,F, |[M:2/4] C,4 |[M:1/4] E,2 |[M:3/4] F,2 D,2 A,,2 | B,4 [F,A,F]2 | E,2 C,2 E,2 | %13
 F,4 E,2 | F,2 C2 A,2 | G,4 E,2 | F,4 C,2 |[M:6/4] .F,6 z6 |[M:3/4] B,,6 | F,6 |] %20
V:3
 x6 | [CA]2 z2 z2 | z2 D,2 c2 | [Cc]2- [CEc]2 [CGB]2 | x6 | x6 | x6 | C2- [CEG]2 [CF]2 | %8
[M:2/4] x4 |[M:1/4] x2 |[M:3/4] [CA]2 z2 z2 | z2 D,2 c2 | [Cc]2- [CEc]2 [CGB]2 | x6 | x6 | x6 | %16
 x6 |[M:6/4] x12 |[M:3/4] x6 | x6 |] %20
V:4
 x6 | x6 | B,,2 z2 z2 | x6 | x6 | x6 | x6 | x6 |[M:2/4] x4 |[M:1/4] x2 |[M:3/4] x6 | B,,2 z2 z2 | %12
 x6 | x6 | x6 | x6 | x6 |[M:6/4] x12 |[M:3/4] x6 | x6 |] %20

